X:139
T:Reis Glorios
C:Guiraut de Borneilh
L:1/4
K:C
D>DA | A>(AB) | c(B/A/B) | G(A/B/c) | (BA)z |
D>DA | A>(AB) | c(B/A/B) | G(A/B/c) | (BA)z |
(A/G/A/B/)A | (G/F/)E2 | E>GA | DE/(F/E/D/) | (DC)z |
C>DE | (F/E/D2) | (A/G/A/B/)A | (G>F)E | F(G/F/E/D/) |
E2z | CDE | F(G/A/G) | (F/E/D/E/F) | (ED)z |]





